X:1
T:Tchaikovsky Violin Concerto 2nd Movement (arrange for solo viola)
T:Tchaikovsky Violin Concerto 2nd Movement (arrange for solo viola)
T:Tchaikovsky
C:Tchaikovsky
%%score ( 1 2 )
L:1/8
Q:1/4=70
M:3/4
K:Bb
V:1 alto nm="Viola" snm="Vla."
V:2 alto 
V:1
 z6 | z6 | z6 | z2 z2!p!"^con sordino" uD,2 |"_molto espress." G,3 (A,B,C) | %5
 !tenuto!D2 (!tenuto!D2 !tenuto!D2) | (!trill(!TD4- (5:4:5!trill)!D/4E/4D/4^C/4D/4F/E/) | %7
 (D4 D,2) | G,3 (A,B,C) | !tenuto!D2 (!tenuto!D2 !tenuto!D2) | %10
!>(! (C/B,/A,- A,2)!>)!!>(! (B,/A,/G,)!>)! |!>(! (^F,/E,/D,- D,2)!>)! D,2 | G,3 (A,B,C) | %13
 !tenuto!D2 (!tenuto!D2 !tenuto!D2) | (TD4- (5:4:5D/4E/4D/4^C/4D/4F/E/) | (D4 D,2) | G,3 (A,B,C) | %17
!<(! !tenuto!D2 !tenuto!uD2 !tenuto!vD2!<)! | %18
"_cresc."!<(! !trill(!Tx3/2x/4x/4 x2 (!trill(!Tx3/2!<)!x/4x/4 |!f! .G)(B,DB)!tenuto!A!tenuto!G | %20
 (^FAD)(G=FE) | (DFB,)(A,B,C) | (^C2 D)!>(!(B,A,G,)!>)! |!p!!mp! (^C2 D)(B,A,G,) | %24
 (^F,G, D,) (=E,2 F,) | G,2 z2 z2 | z6 | z6 | z6 | z6 | z6 |!f! (G"_con anima"E) B,3 (c | %32
 B)(G!>(!EB,)!tenuto!D!tenuto!E!>)! |!p!!mp! (FG B,3) (E | FG B,)!tenuto!=B,(DC) | %35
 (F,3 ^F,)!<(! !tenuto!G,2 | (_A,2 (3A,)!tenuto!B,!tenuto!C (3(!tenuto!D!tenuto!E!tenuto!=F)!<)! | %37
!f! (GE) B,3 (c | BG (3=E)!tenuto!C!tenuto!D (3(!tenuto!E!tenuto!F!tenuto!G) | %39
"_più" _A2!f! GF(_ED) | (FD)(B,_D)!tenuto!C!tenuto!G, |!>(! (_A,_C) B,F,(G,B,)!>)! | %42
!mp!!<(! (E,=E,F,)(^F,G,G)!<)! |!f! _A2 G=F(_ED) | (BGE)(E!>(! e2- | e2 e)(E!>)!!mp! e2- | %46
 e2-!<(! e)(Eed)!<)! | (^cAd)(A"_dim."d=c) | (=BG)c_B(AF | B_A)(GB)(E=E) | (F_ED)(C=B,C | %51
!>(! E)(!tenuto!C,!tenuto!D,!tenuto!E,)(!tenuto!F,!tenuto!^F,!>)! | %52
!mp! (3G,)"^espr."(G,=B,!<(! (3D,)G,B,!<)!!>(! (3(_EDB,)!>)! | %53
 (3z!p!!<(! (v_A,C, (3F,)A,C!<)!!>(! (3(FE_B,)!>)! | (3z!mp! (vED!<(! (3CDE) (3(FG_A)!<)! | %55
 (3(BGE!>(! (3C)!tenuto!B,!tenuto!G, (3(!tenuto!E,!tenuto!B,!tenuto!G,)!>)! | %56
 (3(_A,B,=B, (3(C,)"_cresc."!tenuto!D,)!<(!!tenuto!E, (3(!tenuto!F,!tenuto!G,!tenuto!A,) | %57
!mf! (3(C!<)!=B,C) (3(CD)!tenuto!E (3(!tenuto!F!tenuto!G!tenuto!_A) | (3(cde) (3(E^FG (3=A)(A,A- | %59
 (3A)!>(!(BA (3^F)(DB, (3A,^F,A,)!>)! |!mp! D, z z2!p! uD,2 | G,3 (A,B,C) | %62
 (.D.D) (3(.D.D.D (3.D.D.D) | (TD4- (5:4:5D/4E/4D/4^C/4D/4F/E/) | (D4 D,2) | G,3 (A,B,C) | %66
!<(! (DD,- D,)(DD,D)!<)! |!>(! (C/B,/A,- A,2)!>)!!>(! (B,/A,/G,)!>)! | %68
!>(! (^F,/E,/D,- D,2)!>)!!p!!mp! uD,2 | G,3 (A,B,C) | !tenuto!D2 (!tenuto!D2 !tenuto!D2) | %71
 (TD4- (5:4:5D/4E/4D/4^C/4D/4F/E/) | (D4 D,2) | G,3 (A,B,C) | !tenuto!D2 !tenuto!uD2 !tenuto!vD2 | %75
"_cresc."!mp! !trill(!Tx3/2x/4x/4 x2!mf! !trill(!Tx3/2x/4x/4 |!f! .G(B,DB)!tenuto!A!tenuto!G | %77
 (^FAD)(G=FE) | (DFB,)(A,B,C) | (^C2 D)!>(!(B,A,G,)!>)! |!p!!mp! (^C2 D)!<(!(B,A,G,)!<)! | %81
!mf! (B,A,G,)!f!(BAG) | (^f/g/)(B/c/ ^c/d/)(^F/G/"_dim."!>(! A/B/)(B,/=C/ | %83
 ^C/D/)(A,/B,/ ^F,/G,/)(^C,/D,/ E,/D,/)!tenuto!B,/!tenuto!A,/!>)! | %84
!>(! (G,B,E,G,)!tenuto!A,!tenuto!B,!>)! |!mp!!>(! (!trill(!T^C6 | (!trill(!TvC6)!>)!{=B,^C)} | %87
!p!!mp! D z z4 | z6 | z6 | z6 | z6 | z6 | z6 | z6 | z6 | z6 | z6 | z6 | z6 | z6 | z6 | z6 | z6 | %104
 z6 |"^Molto ritenuto" z6 | z6 | z6 | z6 | z6 | z6 |] %111
V:2
 x6 | x6 | x6 | x6 | x6 | x6 | x6 | x6 | x6 | x6 | x6 | x6 | x6 | x6 | x6 | x6 | x6 | x6 | %18
 (uE2{DE)} F2 (v^F2{=E=F)} | x6 | x6 | x6 | x6 | x6 | x6 | x6 | x6 | x6 | x6 | x6 | x6 | x6 | x6 | %33
 x6 | x6 | x6 | x6 | x6 | x6 | x6 | x6 | x6 | x6 | x6 | x6 | x6 | x6 | x6 | x6 | x6 | x6 | x6 | %52
 x6 | x6 | x6 | x6 | x6 | x6 | x6 | x6 | x6 | x6 | x6 | x6 | x6 | x6 | x6 | x6 | x6 | x6 | x6 | %71
 x6 | x6 | x6 | x6 | (E2{DE)} F2 (v^F2{=E=F)} | x6 | x6 | x6 | x6 | x6 | x6 | x6 | x6 | x6 | x6 | %86
 x/4x/4x/4x/4x/4x/4x/4x/4 x/4x/4x/4x/4x/4x/4x/4x/4 x!trill)!x | x6 | x6 | x6 | x6 | x6 | x6 | x6 | %94
 x6 | x6 | x6 | x6 | x6 | x6 | x6 | x6 | x6 | x6 | x6 | x6 | x6 | x6 | x6 | x6 | x6 |] %111

